X: 32659
T: Pneumatic Drills, The
R: jig
M: 6/8
K: Dmajor
|:dBA ABd|afe edf|edB B2A|GdB BAe|
dBA ABd|afe edf|edB GdB|1 Afe d2e:|2 Afe d2f||
afe edB|efd edB|GdB eGd|GdB BAf|
afe edB|efd edB|GdB eGd|Afe d2e|
afe edB|efd edB|GdB eGd|GdB BAe|
dBA ABd|afe edf|edB GdB|Afe d3||
|:~B3 B2A|Bde edf|afe edB|Gfe edA|
~B3 B2A|Bde edf|afe edB|1 Afe d2A:|2 Afe de/f/g||
|:~a3 fed|eAA ABd|fga fed|Ged BAG|
[1 ~a3 fed|eAA ABd|gfe GdB|Afe d2f:|
[2 ABd dBA|fdA adA|fga fed|Afe d3||

